src/images/icons/yt.svg

<svg width="28" height="21" viewBox="0 0 28 21" fill="none" xmlns="http://www.w3.org/2000/svg">
<g opacity="0.5">
<path fill-rule="evenodd" clip-rule="evenodd" d="M25.9658 1.52896C26.785 2.41388 27.0515 4.42373 27.0515 4.42373C27.0515 4.42373 27.3248 6.78208 27.3248 9.14129V11.3519C27.3248 13.7111 27.0515 16.0694 27.0515 16.0694C27.0515 16.0694 26.7841 18.0784 25.9658 18.9616C25.0287 20.0074 23.9901 20.1159 23.4035 20.1772C23.3395 20.1839 23.2808 20.19 23.2282 20.1968C19.4041 20.4898 13.6624 20.5 13.6624 20.5C13.6624 20.5 6.55744 20.4308 4.37162 20.207C4.26817 20.1864 4.14284 20.1703 4.00094 20.152C3.30872 20.0631 2.22237 19.9234 1.35898 18.9608C0.539833 18.0776 0.273333 16.0686 0.273333 16.0686C0.273333 16.0686 0 13.7111 0 11.351V9.14044C0 6.78208 0.273333 4.42373 0.273333 4.42373C0.273333 4.42373 0.540688 2.41388 1.35898 1.52896C2.30026 0.479487 3.34222 0.373931 3.92755 0.314633C3.98917 0.308391 4.04573 0.302661 4.09658 0.296396C7.91983 0 13.6556 0 13.6556 0H13.6684C13.6684 0 19.4041 0 23.2282 0.296396C23.2791 0.302663 23.3357 0.308395 23.3973 0.314641C23.9828 0.373939 25.0253 0.479532 25.9658 1.52896ZM18.7917 10.25L10.25 15.375V5.125L18.7917 10.25Z" fill="white"/>
</g>
</svg>

<svg width="28" height="21" fill="none" xmlns="http://www.w3.org/2000/svg"><path fill-rule="evenodd" clip-rule="evenodd" d="M25.966 1.529c.819.885 1.085 2.895 1.085 2.895s.274 2.358.274 4.717v2.21c0 2.36-.273 4.718-.273 4.718s-.268 2.01-1.086 2.893c-.937 1.045-1.976 1.154-2.563 1.215l-.175.02c-3.824.293-9.566.303-9.566.303s-7.105-.07-9.29-.293a6.3 6.3 0 0 0-.371-.055c-.692-.089-1.779-.229-2.642-1.191-.82-.883-1.086-2.892-1.086-2.892S0 13.71 0 11.35V9.14a47 47 0 0 1 .273-4.717s.268-2.01 1.086-2.895C2.3.479 3.342.374 3.928.315a8.16 8.16 0 0 0 .169-.019C7.92 0 13.656 0 13.656 0h.012s5.736 0 9.56.296c.051.007.108.012.17.019.585.059 1.627.165 2.568 1.214Zm-7.174 8.721-8.542 5.125V5.125l8.542 5.125Z" fill="#fff" opacity=".5"/></svg>
